packages/tokens/icons/headset2/size16Px.svg

<svg viewBox="0 0 16 16" fill="none" xmlns="http://www.w3.org/2000/svg" width="1em" height="1em"><path d="M14.5 10V7.39815C14.5 4.14069 11.5899 1.5 8 1.5C4.41015 1.5 1.5 4.14069 1.5 7.39815V10" stroke="currentColor"/><path d="M13.5 12V12.5C13.5 13.0523 13.0523 13.5 12.5 13.5H10" stroke="currentColor" stroke-linecap="round"/><circle cx="8.5" cy="13.5" r="1" stroke="currentColor"/><path d="M1.5 9.66667C1.5 8.47005 2.47005 7.5 3.66667 7.5C4.1269 7.5 4.5 7.8731 4.5 8.33333V11.1667C4.5 11.6269 4.1269 12 3.66667 12C2.47005 12 1.5 11.03 1.5 9.83333L1.5 9.66667Z" stroke="currentColor"/><path d="M14.5 9.66667C14.5 8.47005 13.53 7.5 12.3333 7.5C11.8731 7.5 11.5 7.8731 11.5 8.33333V11.1667C11.5 11.6269 11.8731 12 12.3333 12C13.53 12 14.5 11.03 14.5 9.83333V9.66667Z" stroke="currentColor"/></svg>

<svg xmlns="http://www.w3.org/2000/svg" fill="none" viewBox="0 0 16 16" width="1em" height="1em"><path stroke="currentColor" d="M14.5 10V7.398C14.5 4.141 11.59 1.5 8 1.5S1.5 4.14 1.5 7.398V10"/><path stroke="currentColor" stroke-linecap="round" d="M13.5 12v.5a1 1 0 0 1-1 1H10"/><circle cx="8.5" cy="13.5" r="1" stroke="currentColor"/><path stroke="currentColor" d="M1.5 9.667C1.5 8.47 2.47 7.5 3.667 7.5c.46 0 .833.373.833.833v2.834c0 .46-.373.833-.833.833A2.167 2.167 0 0 1 1.5 9.833v-.166Zm13 0c0-1.197-.97-2.167-2.167-2.167a.833.833 0 0 0-.833.833v2.834c0 .46.373.833.833.833 1.197 0 2.167-.97 2.167-2.167v-.166Z"/></svg>
